app/img/sentinel_icon_3.svg

<svg width="33" height="33" viewBox="0 0 33 33" fill="none" xmlns="http://www.w3.org/2000/svg">
<path d="M28.9704 13.9925L25.9926 13.1037C25.7867 12.3848 25.5036 11.6904 25.1481 11.0325L26.6059 8.30366C26.6606 8.20065 26.6807 8.08275 26.663 7.96746C26.6454 7.85217 26.5911 7.74563 26.5081 7.66366L24.3837 5.53032C24.3017 5.44736 24.1952 5.39304 24.0799 5.37543C23.9646 5.35782 23.8467 5.37784 23.7437 5.43254L21.0326 6.88143C20.3682 6.50869 19.6647 6.21058 18.9348 5.99254L18.0459 3.05032C18.0083 2.94189 17.9373 2.84819 17.843 2.7827C17.7488 2.71721 17.6362 2.68331 17.5215 2.68588H14.517C14.4016 2.68641 14.2894 2.72377 14.1966 2.79252C14.1039 2.86127 14.0355 2.95781 14.0015 3.0681L13.1126 6.00143C12.3766 6.2183 11.667 6.51644 10.997 6.89032L8.33037 5.45032C8.22736 5.39562 8.10946 5.37559 7.99417 5.39321C7.87888 5.41082 7.77234 5.46514 7.69037 5.5481L5.53037 7.65477C5.44741 7.73674 5.39309 7.84328 5.37547 7.95857C5.35786 8.07386 5.37789 8.19176 5.43259 8.29477L6.87259 10.9614C6.49931 11.6286 6.20119 12.3352 5.9837 13.0681L3.04148 13.957C2.93119 13.9911 2.83464 14.0594 2.7659 14.1521C2.69715 14.2449 2.65979 14.3571 2.65926 14.4725V17.477C2.65979 17.5924 2.69715 17.7047 2.7659 17.7974C2.83464 17.8901 2.93119 17.9585 3.04148 17.9925L6.00148 18.8814C6.22134 19.6022 6.51941 20.2967 6.89037 20.9525L5.43259 23.7437C5.37789 23.8467 5.35786 23.9646 5.37547 24.0799C5.39309 24.1951 5.44741 24.3017 5.53037 24.3837L7.65481 26.5081C7.73679 26.5911 7.84333 26.6454 7.95862 26.663C8.07391 26.6806 8.19181 26.6606 8.29481 26.6059L11.0415 25.1392C11.6912 25.4898 12.3766 25.7699 13.0859 25.9748L13.9748 28.9703C14.0089 29.0806 14.0772 29.1772 14.17 29.2459C14.2627 29.3146 14.3749 29.352 14.4904 29.3525H17.4948C17.6102 29.352 17.7225 29.3146 17.8152 29.2459C17.9079 29.1772 17.9763 29.0806 18.0104 28.9703L18.8993 25.9659C19.6025 25.76 20.2819 25.4799 20.9259 25.1303L23.6904 26.6059C23.7934 26.6606 23.9113 26.6806 24.0266 26.663C24.1419 26.6454 24.2484 26.5911 24.3304 26.5081L26.4548 24.3837C26.5378 24.3017 26.5921 24.1951 26.6097 24.0799C26.6273 23.9646 26.6073 23.8467 26.5526 23.7437L25.077 20.9881C25.4302 20.3416 25.7133 19.6592 25.9215 18.9525L28.917 18.0637C29.0273 18.0296 29.1239 17.9612 29.1926 17.8685C29.2614 17.7758 29.2987 17.6635 29.2993 17.5481V14.517C29.3045 14.4065 29.2758 14.297 29.217 14.2032C29.1582 14.1095 29.0722 14.036 28.9704 13.9925ZM16.0193 20.9081C15.0523 20.9081 14.1071 20.6214 13.3031 20.0842C12.4992 19.547 11.8725 18.7834 11.5025 17.8901C11.1325 16.9968 11.0357 16.0138 11.2243 15.0654C11.4129 14.1171 11.8786 13.246 12.5623 12.5622C13.246 11.8785 14.1171 11.4129 15.0655 11.2243C16.0138 11.0356 16.9968 11.1324 17.8902 11.5025C18.7835 11.8725 19.547 12.4991 20.0842 13.3031C20.6214 14.1071 20.9081 15.0523 20.9081 16.0192C20.9081 17.3158 20.3931 18.5593 19.4762 19.4762C18.5594 20.393 17.3159 20.9081 16.0193 20.9081Z" fill="white"/>
</svg>

<svg width="33" height="33" fill="none" xmlns="http://www.w3.org/2000/svg"><path d="M28.97 13.992l-2.977-.888a10.353 10.353 0 00-.845-2.071l1.458-2.73a.542.542 0 00-.098-.64L24.384 5.53a.542.542 0 00-.64-.097L21.033 6.88a10.331 10.331 0 00-2.098-.888l-.89-2.943a.542.542 0 00-.524-.364h-3.004a.542.542 0 00-.515.382l-.89 2.933c-.735.217-1.445.515-2.115.89L8.33 5.45a.542.542 0 00-.64.097L5.53 7.655a.542.542 0 00-.097.64l1.44 2.666a10.34 10.34 0 00-.89 2.107l-2.942.889a.542.542 0 00-.382.515v3.005a.542.542 0 00.382.515l2.96.89c.22.72.518 1.415.89 2.07l-1.458 2.792a.542.542 0 00.097.64l2.125 2.124a.542.542 0 00.64.098l2.746-1.467c.65.35 1.336.63 2.045.836l.889 2.995a.542.542 0 00.515.383h3.005a.542.542 0 00.515-.383l.89-3.004a10.335 10.335 0 002.026-.836l2.764 1.476a.542.542 0 00.64-.098l2.125-2.124a.542.542 0 00.098-.64l-1.476-2.756c.353-.646.636-1.329.845-2.035l2.995-.89a.543.543 0 00.382-.515v-3.031a.543.543 0 00-.329-.524zm-12.95 6.916a4.889 4.889 0 110-9.778 4.889 4.889 0 010 9.778z" fill="#fff"/></svg>
